main/static/images/panier.svg

<svg enable-background="new 0 0 64 64" viewBox="0 0 64 64" xmlns="http://www.w3.org/2000/svg"><circle cx="32" cy="32" fill="#4dbdc0" r="32"/><path d="m49 26h-34c-1.7 0-3 1.3-3 3l4 18c0 1.7 1.3 3 3 3h26c1.7 0 3-1.3 3-3l4-18c0-1.7-1.3-3-3-3zm-25 19c0 1.1-.9 2-2 2s-2-.9-2-2v-6c0-1.1.9-2 2-2s2 .9 2 2zm10 0c0 1.1-.9 2-2 2s-2-.9-2-2v-6c0-1.1.9-2 2-2s2 .9 2 2zm10 0c0 1.1-.9 2-2 2s-2-.9-2-2v-6c0-1.1.9-2 2-2s2 .9 2 2z" fill="#231f20" opacity=".2"/><path d="m49 24h-34c-1.7 0-3 1.3-3 3l4 18c0 1.7 1.3 3 3 3h26c1.7 0 3-1.3 3-3l4-18c0-1.7-1.3-3-3-3zm-25 19c0 1.1-.9 2-2 2s-2-.9-2-2v-6c0-1.1.9-2 2-2s2 .9 2 2zm10 0c0 1.1-.9 2-2 2s-2-.9-2-2v-6c0-1.1.9-2 2-2s2 .9 2 2zm10 0c0 1.1-.9 2-2 2s-2-.9-2-2v-6c0-1.1.9-2 2-2s2 .9 2 2z" fill="#4a898b"/><path d="m56 28c0 1.1-.9 2-2 2h-44c-1.1 0-2-.9-2-2 0-1.1.9-2 2-2h44c1.1 0 2 .9 2 2z" fill="#231f20" opacity=".2"/><path d="m56 26c0 1.1-.9 2-2 2h-44c-1.1 0-2-.9-2-2 0-1.1.9-2 2-2h44c1.1 0 2 .9 2 2z" fill="#4a898b"/><path d="m42.8 15.2c.8.8.8 2 0 2.8l-11.4 15.4c-.8.8-2 .8-2.8 0-.8-.8-.8-2 0-2.8l11.4-15.4c.8-.8 2-.8 2.8 0z" fill="#231f20" opacity=".2"/><path d="m42.8 13.2c.8.8.8 2 0 2.8l-11.4 15.4c-.8.8-2 .8-2.8 0-.8-.8-.8-2 0-2.8l11.4-15.4c.8-.8 2-.8 2.8 0z" fill="#4a898b"/></svg>

<?xml version="1.0" encoding="utf-8"?>
<!-- Generator: Adobe Illustrator 22.1.0, SVG Export Plug-In . SVG Version: 6.00 Build 0)  -->
<svg version="1.1" id="Calque_1" xmlns="http://www.w3.org/2000/svg" xmlns:xlink="http://www.w3.org/1999/xlink" x="0px" y="0px"
	 viewBox="0 0 64 64" style="enable-background:new 0 0 64 64;" xml:space="preserve">
<style type="text/css">
	.st0{fill:#4DBDC0;}
	.st1{opacity:0.2;}
	.st2{fill:#231F20;}
	.st3{fill:#4A898B;}
</style>
<g id="Layer_1">
	<g>
		<circle class="st0" cx="32" cy="32" r="32"/>
	</g>
	<g class="st1">
		<path class="st2" d="M49,26H15c-1.7,0-3,1.3-3,3l4,18c0,1.7,1.3,3,3,3h26c1.7,0,3-1.3,3-3l4-18C52,27.3,50.7,26,49,26z M24,45
			c0,1.1-0.9,2-2,2s-2-0.9-2-2v-6c0-1.1,0.9-2,2-2s2,0.9,2,2V45z M34,45c0,1.1-0.9,2-2,2s-2-0.9-2-2v-6c0-1.1,0.9-2,2-2s2,0.9,2,2
			V45z M44,45c0,1.1-0.9,2-2,2s-2-0.9-2-2v-6c0-1.1,0.9-2,2-2s2,0.9,2,2V45z"/>
	</g>
	<g>
		<path class="st3" d="M49,24H15c-1.7,0-3,1.3-3,3l4,18c0,1.7,1.3,3,3,3h26c1.7,0,3-1.3,3-3l4-18C52,25.3,50.7,24,49,24z M24,43
			c0,1.1-0.9,2-2,2s-2-0.9-2-2v-6c0-1.1,0.9-2,2-2s2,0.9,2,2V43z M34,43c0,1.1-0.9,2-2,2s-2-0.9-2-2v-6c0-1.1,0.9-2,2-2s2,0.9,2,2
			V43z M44,43c0,1.1-0.9,2-2,2s-2-0.9-2-2v-6c0-1.1,0.9-2,2-2s2,0.9,2,2V43z"/>
	</g>
	<g class="st1">
		<path class="st2" d="M56,28c0,1.1-0.9,2-2,2H10c-1.1,0-2-0.9-2-2l0,0c0-1.1,0.9-2,2-2h44C55.1,26,56,26.9,56,28L56,28z"/>
	</g>
	<g>
		<path class="st3" d="M56,26c0,1.1-0.9,2-2,2H10c-1.1,0-2-0.9-2-2l0,0c0-1.1,0.9-2,2-2h44C55.1,24,56,24.9,56,26L56,26z"/>
	</g>
	<g class="st1">
		<path class="st2" d="M42.8,15.2c0.8,0.8,0.8,2,0,2.8L31.4,33.4c-0.8,0.8-2,0.8-2.8,0l0,0c-0.8-0.8-0.8-2,0-2.8L40,15.2
			C40.8,14.4,42,14.4,42.8,15.2L42.8,15.2z"/>
	</g>
	<g>
		<path class="st3" d="M42.8,13.2c0.8,0.8,0.8,2,0,2.8L31.4,31.4c-0.8,0.8-2,0.8-2.8,0l0,0c-0.8-0.8-0.8-2,0-2.8L40,13.2
			C40.8,12.4,42,12.4,42.8,13.2L42.8,13.2z"/>
	</g>
</g>
<g id="Layer_2">
</g>
</svg>
